static/logos/tripadvisor-glyph-color.svg

<svg width="50" height="50" viewBox="0 0 50 50" fill="none" xmlns="http://www.w3.org/2000/svg">
<g clip-path="url(#clip0_1_640)">
<path d="M25.0002 50.0004C38.8074 50.0004 50.0004 38.8074 50.0004 25.0002C50.0004 11.193 38.8074 0 25.0002 0C11.193 0 0 11.193 0 25.0002C0 38.8074 11.193 50.0004 25.0002 50.0004Z" fill="#34E0A1"/>
<path d="M40.4407 20.1228L43.4576 16.8408H36.7675C33.4183 14.5529 29.3735 13.2205 24.9994 13.2205C20.6306 13.2205 16.5971 14.5559 13.2535 16.8408H6.54688L9.56343 20.1228C7.71427 21.81 6.55513 24.2404 6.55513 26.9386C6.55513 32.0308 10.6836 36.1592 15.7758 36.1592C18.195 36.1592 20.3985 35.2262 22.0436 33.7011L24.9991 36.919L27.9545 33.7041C29.5997 35.2292 31.8009 36.1592 34.2197 36.1592C39.3119 36.1592 43.446 32.0308 43.446 26.9386C43.4486 24.2374 42.2895 21.8074 40.4403 20.1228H40.4407ZM15.7784 33.1787C12.3314 33.1787 9.5383 30.3856 9.5383 26.9386C9.5383 23.4915 12.3317 20.6985 15.7784 20.6985C19.2255 20.6985 22.0185 23.4919 22.0185 26.9386C22.0185 30.3853 19.2251 33.1787 15.7784 33.1787ZM25.0021 26.7571C25.0021 22.6507 22.0159 19.1257 18.0746 17.62C20.2061 16.729 22.5439 16.2348 24.9994 16.2348C27.4546 16.2348 29.7954 16.729 31.9269 17.62C27.9886 19.1287 25.0024 22.6507 25.0024 26.7571H25.0021ZM34.2227 33.1787C30.7757 33.1787 27.9826 30.3856 27.9826 26.9386C27.9826 23.4915 30.776 20.6985 34.2227 20.6985C37.6698 20.6985 40.4628 23.4919 40.4628 26.9386C40.4628 30.3853 37.6694 33.1787 34.2227 33.1787ZM34.2227 23.6648C32.4152 23.6648 30.9516 25.1284 30.9516 26.9359C30.9516 28.7431 32.4152 30.2068 34.2227 30.2068C36.0299 30.2068 37.4935 28.7431 37.4935 26.9359C37.4935 25.1314 36.0299 23.6648 34.2227 23.6648ZM19.0496 26.9386C19.0496 28.7457 17.5859 30.2094 15.7784 30.2094C13.9713 30.2094 12.5076 28.7457 12.5076 26.9386C12.5076 25.131 13.9713 23.6674 15.7784 23.6674C17.5856 23.6648 19.0496 25.131 19.0496 26.9386Z" fill="black"/>
</g>
<defs>
<clipPath id="clip0_1_640">
<rect width="50" height="50" fill="white"/>
</clipPath>
</defs>
</svg>

<svg xmlns="http://www.w3.org/2000/svg" width="64" height="64" fill="none" viewBox="0 0 50 50"><g clip-path="url(#a)"><path fill="#34E0A1" d="M25 50c13.807 0 25-11.193 25-25S38.807 0 25 0 0 11.193 0 25s11.193 25 25 25Z"/><path fill="#000" d="m40.44 20.123 3.018-3.282h-6.69a20.769 20.769 0 0 0-11.769-3.62 20.72 20.72 0 0 0-11.745 3.62H6.547l3.016 3.282A9.22 9.22 0 1 0 22.043 33.7L25 36.92l2.956-3.215a9.183 9.183 0 0 0 6.265 2.455c5.092 0 9.226-4.128 9.226-9.22a9.18 9.18 0 0 0-3.006-6.816ZM15.779 33.179a6.24 6.24 0 0 1-6.24-6.24 6.24 6.24 0 0 1 6.24-6.24 6.24 6.24 0 0 1 6.24 6.24 6.24 6.24 0 0 1-6.24 6.24Zm9.224-6.422c0-4.106-2.986-7.631-6.927-9.137a17.909 17.909 0 0 1 6.924-1.385c2.456 0 4.796.494 6.928 1.385-3.938 1.509-6.925 5.03-6.925 9.137Zm9.22 6.422a6.24 6.24 0 0 1-6.24-6.24 6.24 6.24 0 0 1 6.24-6.24 6.24 6.24 0 0 1 6.24 6.24 6.24 6.24 0 0 1-6.24 6.24Zm0-9.514a3.27 3.27 0 0 0-3.27 3.27 3.27 3.27 0 0 0 3.27 3.272 3.27 3.27 0 1 0 0-6.542ZM19.05 26.939a3.27 3.27 0 0 1-3.272 3.27 3.27 3.27 0 0 1-3.27-3.27 3.27 3.27 0 0 1 3.27-3.272 3.269 3.269 0 0 1 3.272 3.272Z"/></g><defs><clipPath id="a"><path fill="#fff" d="M0 0h50v50H0z"/></clipPath></defs></svg>
